X:1
T:Title
%%score { 1 | ( 2 3 ) }
L:1/8
Q:1/4=90
M:6/8
K:Eb
V:1 treble nm="Grand Piano"
V:2 bass 
V:3 bass 
V:1
 [GB][GB][GB] GFE | [DF]2 [DG] .E3 | ccc B2 [Ge] | d6 | [Ge][Ge][Ge] [Bd][Ac][GB] | %5
w: E.~S.~Lorenz * * * * *|||||
 [EAc]2 [EAc] [CFA]2 [CF] | [G,B,E][G,B,E][G,B,E] [B,EG]2 [A,DF] | [G,E]6 | BBB .B2 G | .A2 d .d3 | %10
w: |||||
 AAA .A2 F | .G2 [Ge] .[Ge]3 | [Ge][Ge][Ge] [Bd][Ac][GB] | [EAc]2 [EAc] [CFA]2 [CF] | %14
w: ||||
 [G,B,E][G,B,E][G,B,E] [B,EG]2 [A,DF] |[M:7/4] [G,E]6 z2 z2 z4 |] %16
w: ||
V:2
 [E,B,][E,E][E,E] [E,B,E][E,A,D][E,G,] | [B,,A,]2 [B,,B,] .[E,G,]3 | %2
 [A,E][A,E][A,E] [G,B,E]2 [E,B,] | [B,F]6 | [E,B,][E,B,][E,E] [E,E][E,E][E,E] | A,,2 A,, z2 A, | %6
 B,,B,,B,, B,,2 B,, | E,6 | GGG .G2 E | .F2 [B,F] .[B,F]3 | FFF .F2 D | %11
 .E2[K:bass] [E,B,] .[E,B,]3 | [E,B,][E,B,][E,E] [E,E][E,E][E,E] | A,,2 A,, z2 A, | %14
 B,,B,,B,, B,,2 B,, |[M:7/4] E,6 z2 z2 z4 |] %16
V:3
 x6 | x6 | x6 | x6 | x6 | z3 A,,3 | x6 | x6 | x6 | x6 | x6 | x2[K:bass] x4 | x6 | z3 A,,3 | x6 | %15
[M:7/4] x14 |] %16

